optimized/zarrinpal.svg

<svg width="40" height="40" viewBox="0 0 40 40" fill="none" xmlns="http://www.w3.org/2000/svg">
<path d="M11.11 24.09C10.71 24.09 10.32 24.07 9.93 24.03L17.92 4.19999C20.54 6.22999 22.22 9.39999 22.22 12.97C22.22 19.11 17.25 24.09 11.11 24.09Z" fill="black"/>
<path d="M40 4.43999C40 4.77999 39.93 5.10999 39.81 5.41999L26.98 37.27C26.58 38.26 25.62 38.9 24.56 38.9H7.8C6.36 38.9 5.19 37.75 5.19 36.32C5.19 35.98 5.25 35.65 5.37 35.34L9.54 24.99C10.05 25.06 10.58 25.09 11.11 25.09C17.79 25.09 23.22 19.65 23.22 12.97C23.22 8.98999 21.3 5.45999 18.33 3.24999C18.77 2.39999 19.66 1.85999 20.63 1.85999H37.39C38.82 1.84999 39.99 3.00999 40 4.43999Z" fill="black"/>
<path d="M22.22 12.97C22.22 19.11 17.25 24.09 11.11 24.09C10.71 24.09 10.32 24.07 9.93 24.03C4.35 23.44 0 18.71 0 12.97C0 6.83999 4.97 1.85999 11.11 1.85999C13.68 1.85999 16.04 2.72999 17.92 4.19999C20.54 6.22999 22.22 9.39999 22.22 12.97Z" fill="black"/>
</svg>

<svg xmlns="http://www.w3.org/2000/svg" fill="none" viewBox="0 0 40 40">
  <path fill="#000" d="M11.11 24.09c-.4 0-.79-.02-1.18-.06l7.99-19.83001c2.62 2.03 4.3 5.2 4.3 8.77001 0 6.14-4.97 11.12-11.11 11.12Z"/>
  <path fill="#000" d="M40 4.43999c0 .34-.07.67-.19.98L26.98 37.27c-.4.99-1.36 1.63-2.42 1.63H7.8c-1.44 0-2.61-1.15-2.61-2.58 0-.34.06-.67.18-.98l4.17-10.35c.51.07 1.04.1 1.57.1 6.68 0 12.11-5.44 12.11-12.12 0-3.98001-1.92-7.51001-4.89-9.72001.44-.85 1.33-1.39 2.3-1.39h16.76c1.43-.01 2.6 1.15 2.61 2.58Z"/>
  <path fill="#000" d="M22.22 12.97c0 6.14-4.97 11.12-11.11 11.12-.4 0-.79-.02-1.18-.06C4.35 23.44 0 18.71 0 12.97 0 6.83999 4.97 1.85999 11.11 1.85999c2.57 0 4.93.87 6.81 2.34 2.62 2.03 4.3 5.2 4.3 8.77001Z"/>
</svg>
